autorenew-off.svg

<svg fill="currentColor" viewBox="0 0 24 24"><path d="M18 12c0-1-.26-1.96-.7-2.8l1.46-1.46A7.93 7.93 0 0 1 20 12c0 1.39-.36 2.68-1 3.82l-1.5-1.5c.32-.72.5-1.49.5-2.32M2.39 1.73 1.11 3 5.5 7.37C4.55 8.68 4 10.27 4 12c0 1.57.46 3.03 1.24 4.26L6.7 14.8A5.9 5.9 0 0 1 6 12c0-1.17.34-2.26.92-3.19l8.27 8.27c-.93.58-2.02.92-3.19.92v-3l-4 4 4 4v-3c1.73 0 3.32-.55 4.63-1.5l4.21 4.23 1.27-1.27zM12 6v2.8l.1.1L16 5l-4-4v3c-1.38 0-2.68.36-3.82 1l1.5 1.5c.72-.32 1.5-.5 2.32-.5"/></svg>

<svg  viewBox="0 0 24 24" fill="currentColor"><path  d="M18 12C18 11 17.74 10.04 17.3 9.2L18.76 7.74C19.54 8.97 20 10.43 20 12C20 13.39 19.64 14.68 19 15.82L17.5 14.32C17.82 13.6 18 12.83 18 12M2.39 1.73L1.11 3L5.5 7.37C4.55 8.68 4 10.27 4 12C4 13.57 4.46 15.03 5.24 16.26L6.7 14.8C6.25 13.97 6 13 6 12C6 10.83 6.34 9.74 6.92 8.81L15.19 17.08C14.26 17.66 13.17 18 12 18V15L8 19L12 23V20C13.73 20 15.32 19.45 16.63 18.5L20.84 22.73L22.11 21.46L2.39 1.73M12 6V8.8L12.1 8.9L16 5L12 1V4C10.62 4 9.32 4.36 8.18 5L9.68 6.5C10.4 6.18 11.18 6 12 6Z"/></svg>
